X:308
T:Mountain Dew
C:Traditional
N:Transcribed by Michael P Herlihy
R:bluegrass
L:1/8
Q:1/4=240
M:4/4
K:E
z4 z"E"e c=c | B2 GE BB cB | e2 cB ed fe | g2 =g^g ge fd | e2 =g/^g3/2 f2 e2 | 
"A"Bc e2 e2 c2 | ef eE cA ec | "E"B2 F=G ^GB cB | ec Be cB GA | B2 EG BB cB | 
e2 cz/4e3/4 ee fe | g2 g2 fe c2 | e2 Bc de f=g | ee gd eB ce | "A"Bg af ge fd | 
"E"ec B=G ^GB cB | e6 c=c | B2 BE BB cB | eB ce de fe | ge =g^g ge fd | e2 =g/^g3/2 f2 ee | 
"A"Bc eA e2 c2 | ef eE cA ec | "E"BG F=G ^GB cB | ec Be cB GA | BG BG EB cB | 
e2 cd ee fe | ef e2 fe cB | e2 Bc de f=g | ee gd eB ce | "A"Bg ef ge fd | "E"ec B=G ^GB cB | 
e8 | 


